lib/svgs/dashed-right.svg

<?xml version="1.0" encoding="UTF-8" standalone="no"?>
<svg width="20px" height="20px" viewBox="0 0 20 20" version="1.1" xmlns="http://www.w3.org/2000/svg" xmlns:xlink="http://www.w3.org/1999/xlink">
    <defs></defs>
    <g id="Icons" stroke="none" stroke-width="1" fill="none" fill-rule="evenodd">
        <g id="Web" transform="translate(-49.000000, -744.000000)" fill="#000000">
            <g id="arrow/dashed-right" transform="translate(49.000000, 744.000000)">
                <path d="M13.0558,14.6143 C12.9208,14.6143 12.7848,14.5693 12.6728,14.4753 C12.4178,14.2633 12.3828,13.8853 12.5958,13.6313 L15.6188,10.0003 L12.5958,6.3683 C12.3828,6.1143 12.4178,5.7363 12.6728,5.5243 C12.9268,5.3123 13.3058,5.3463 13.5168,5.6013 L16.8608,9.6163 C17.0468,9.8383 17.0468,10.1613 16.8608,10.3843 L13.5168,14.3983 C13.3988,14.5413 13.2278,14.6143 13.0558,14.6143 M6.944,14.6143 C6.772,14.6143 6.601,14.5413 6.483,14.3983 L3.139,10.3843 C2.954,10.1613 2.954,9.8383 3.139,9.6163 L6.483,5.6013 C6.694,5.3463 7.073,5.3103 7.327,5.5243 C7.582,5.7363 7.617,6.1143 7.404,6.3683 L4.381,10.0003 L7.404,13.6313 C7.617,13.8853 7.582,14.2633 7.327,14.4753 C7.215,14.5693 7.079,14.6143 6.944,14.6143" id="Shape"></path>
            </g>
        </g>
    </g>
</svg>

<svg xmlns="http://www.w3.org/2000/svg" viewBox="0 0 20 20">
    <path fill="#000" fill-rule="evenodd" d="M13.056 14.614a.598.598 0 0 1-.46-.983l3.023-3.63-3.023-3.633a.598.598 0 1 1 .921-.767l3.344 4.015a.598.598 0 0 1 0 .768l-3.344 4.014a.595.595 0 0 1-.461.216m-6.112 0a.595.595 0 0 1-.461-.216l-3.344-4.014a.6.6 0 0 1 0-.768l3.344-4.015a.597.597 0 0 1 .844-.077c.255.212.29.59.077.844L4.381 10l3.023 3.631a.598.598 0 0 1-.46.983"/>
</svg>
